X:7909
T:Cossack's lament
C:anon.
O:Ukraine
Z:Transcribed by Frank Nordberg - http://www.musicaviva.com
F:http://abc.musicaviva.com/tunes/ukraine/cossacks-lament.abc
M:2/4
L:1/8
K:Am
"^Moderato"e2ee|d2e2|AcBA|^G2E2|
A^GAB|c2d2|e3d|c4|
e2ee|d2e2|AcBA|^G2E2|ABce|dcB^G|A4-|A2z2|]
W:
W:
W:  From Musica Viva - http://www.musicaviva.com
W:  the Internet center for free sheet music downloads.
